X:1
T:Title
%%score { 1 | ( 2 3 ) }
L:1/8
Q:1/4=200
M:2/2
K:G
V:1 treble nm="Grand Piano"
V:2 bass 
V:3 bass 
V:1
 G4 D4 | [DB]4 [CA]4 | [G,DG]4 [G,CE]4 | [G,B,D]8 | [G,CE]4 [G,DG]4 | [Cc]4 [DB]4 | [EA]4 G4 | d8 | %8
w: Havergal *||||||||
 B4 G4 | c4 B4 | A4 G4 | F8 | [DG]8 | [CE]8 |[M:6/4] [B,G]12 |] %15
w: |||||||
V:2
 [G,B,D]4 [G,C]4 | [G,,G,]4 E,2 F,2 | B,,4 C,4 | G,,8 | C,4 B,,4 | [A,,F,]4 [G,,G,]4 | %6
 [C,E,]4 [E,G,^C]4 | [D,F,D]8 | [G,D]4 [G,B,]4 | [E,G,C]4 [G,D]4 | [C,E,C]4 [E,G,^C]4 | [D,A,D]8 | %12
 [B,,G,]8 | [C,G,]8 |[M:6/4] [G,,G,]12 |] %15
V:3
 x8 | z4 A,,4 | x8 | x8 | x8 | x8 | x8 | x8 | x8 | x8 | x8 | x8 | x8 | x8 |[M:6/4] x12 |] %15

